!!!COM: Palestrina, Giovanni Perluigi da
!!!OPR: Missa Assumpta est Maria
!!!OMD: Credo
!!!OTL: Crucifixus
**kern	**kern	**kern	**kern
*Icalto	*Icalto	*Icant	*Icant
!Altus 2	!Altus 1	!Cantus 2	!Cantus 1
*clefG2	*clefG2	*clefG2	*clefG2
*k[]	*k[]	*k[]	*k[]
*G:mix	*G:mix	*G:mix	*G:mix
*M4/2	*M4/2	*M4/2	*M4/2
=66	=66	=66	=66
0r	0g	0r	1r
.	.	.	[1dd
=67	=67	=67	=67
0r	1b	0r	2dd]
.	.	.	2dd
.	1cc	.	1ee
=68	=68	=68	=68
0g	1b	1r	2.dd
.	.	.	4cc
.	2r	[1dd	2.b
.	[2g	.	.
.	.	.	4a
=69	=69	=69	=69
1b	2g]	2dd]	0g
.	2g	2dd	.
1cc	1c	1ee	.
=70	=70	=70	=70
1b	1g	1dd	0r
2.cc	1r	2.ee	.
4b	.	4dd	.
=71	=71	=71	=71
2a	1r	2cc	1r
2g#	.	2b	.
2a	2.cc	4a	2.ee
.	.	4b	.
4A	.	4cc	.
4B	4b	4dd	4dd
=72	=72	=72	=72
4c	2a	0ee	2cc
4d	.	.	.
2e	2g#	.	2b
4A	1a	.	1cc
4B	.	.	.
4c	.	.	.
4d	.	.	.
=73	=73	=73	=73
1e	2g#	2ee	2b
.	2g#	2b	2ee
1r	2.a	2.cc	2.ee
.	4a	4cc	4ee
=74	=74	=74	=74
0r	2d	2dd	2ff
.	2a	2cc	2ee
.	2.cc	4a	2.ee
.	.	4b	.
.	.	4cc	.
.	4b	4dd	4dd
=75	=75	=75	=75
0r	4a	2ee	4cc
.	4g	.	4b
.	4f	2.ff	4a
.	4e	.	4g
.	2d	.	4a
.	.	4dd	4b
.	2c	2ee	[2cc
=76	=76	=76	=76
1r	1g	1dd	2cc]
.	.	.	2b
[1c	1r	1ee	1cc
=77	=77	=77	=77
1c]	1g	1cc	1ee
1d	1f#	1a	1dd
=78	=78	=78	=78
2e	2g	2g	2b
2f#	1a	2dd	2a
2g	.	2dd	2b
2e	[2g	2cc#	2g
=79	=79	=79	=79
1d	2g]	0dd	1a
.	2f#	.	.
1G	1g	.	1b
=80	=80	=80	=80
1g	2r	1b	2r
.	2g	.	2dd
2.f	2.a	2.cc	2.ff
4f	4a	4cc	4ff
=81	=81	=81	=81
2f	2a	2cc	2ff
2c	2g	2cc	2ee
2.d	2.f	2.a	2.dd
4d	4f	4a	4dd
=82	=82	=82	=82
2A	2e	2ee	2cc#
2.a	2d	2ff	2dd
.	1e	1ee	1b
8g#	.	.	.
8f#	.	.	.
2g#	.	.	.
=83	=83	=83	=83
1a	1A	2r	2r
.	.	2ee	2cc
2r	1r	2ff	2dd
2e	.	2ee	2cc
=84	=84	=84	=84
2f	0r	4cc	4a
.	.	4dd	4b
2e	.	4ee	4cc
.	.	4ff	4dd
4c	.	2gg	4ee
4d	.	.	4ff
4e	.	2ee	[2gg
4f	.	.	.
=85	=85	=85	=85
1g	2r	2dd	4gg]
.	.	.	4ff
.	2e	2b	2ee
2a	2f	2a	4cc
.	.	.	4dd
2b	2e	2g	4ee
.	.	.	4ff
=86	=86	=86	=86
1cc	4c	2.gg	2.ee
.	4d	.	.
.	4e	.	.
.	4f	8ff	8dd
.	.	8ee	8cc
1r	2g	2dd	2b
.	2a	2cc	[2cc
=87	=87	=87	=87
0r	0g	1dd	2cc]
.	.	.	4b
.	.	.	4a
.	.	2r	2b
.	.	2g	2b
=88	=88	=88	=88
0r	0r	2a	2cc
.	.	2b	2dd
.	.	2cc	2ee
.	.	2dd	2ff
=89	=89	=89	=89
2r	0r	4ee	4gg
.	.	4ff	4ff
2c	.	4gg	2ee
.	.	4ee	.
2d	.	2ff	2dd
2e	.	2ee	[2cc
=90	=90	=90	=90
2f	1r	1dd	2cc]
2g	.	.	2b
1a	2r	1cc	2cc
.	2cc	.	2ee
=91	=91	=91	=91
1g	2cc	1r	2ee
.	2b	.	2dd
1r	2.cc	2r	2.ee
.	.	2gg	.
.	4cc	.	4ee
=92	=92	=92	=92
2r	2b	2gg	2dd
2cc	2a	2ff#	2cc
2cc	2g	2.gg	1dd
2b	2g	.	.
.	.	4gg	.
=93	=93	=93	=93
2.cc	2.a	2ff	0r
.	.	2.ee	.
4cc	4a	.	.
2b	2g#	.	.
.	.	4dd	.
[2a	2a	4cc	.
.	.	8b	.
.	.	8a	.
=94	=94	=94	=94
2a]	1e	1b	1r
2g#	.	.	.
2a	2r	2a	2r
2A	2a	2cc#	2ee
=95	=95	=95	=95
2.d	2.a	2.dd	2.ff
4d	4a	4dd	4ff
2d	2a	2dd	2ff
2c#	2a	2ee	2ee
=96	=96	=96	=96
2d	2a	2ff	2dd
2d	2a	2ff	2dd
2e	2g	2ee	2b
2g	2c	2ee	2cc
=97	=97	=97	=97
2.f#	2.d	2.dd	2.a
4f#	4d	4dd	4a
2f#	2d	2dd	2a
[2g	2G	[2b	[2dd
=98	=98	=98	=98
2g]	1g	2b]	2dd]
2e	.	2cc	2ee
1d	2a	1dd	1ff
.	2b	.	.
=99	=99	=99	=99
1c	1cc	2g	1ee
.	.	4cc	.
.	.	4dd	.
1c	2r	4ee	4cc
.	.	4ff	4dd
.	4c	2gg	4ee
.	4d	.	4ff
=100	=100	=100	=100
1c	4e	2ee	2gg
.	4f	.	.
.	2g	2cc	2ee
1c	2e	4gg	2cc
.	.	4ff	.
.	2c	4ee	4gg
.	.	4dd	4ff
=101	=101	=101	=101
1.c	1.g	4cc	4ee
.	.	4b	4dd
.	.	1cc	1ee
2G	2g	2b	2dd
=102	=102	=102	=102
2G	1g	2b	2dd
1g	.	1dd	1b
.	1r	.	.
2e	.	2ee	2cc
=103	=103	=103	=103
1f	2r	2cc	1a
.	1a	2dd	.
1e	.	[1ee	1b
.	2g#	.	.
=104	=104	=104	=104
2r	1a	0ee]	2r
2a	.	.	2cc
2a	1e	.	2cc
2g	.	.	2b
=105	=105	=105	=105
4f	0r	2r	4a
4g	.	.	4b
4a	.	2ee	4cc
4b	.	.	4dd
2cc	.	2ee	4ee
.	.	.	4ff
2b	.	2dd	2gg
=106	=106	=106	=106
1a	0r	4cc	2ff
.	.	4dd	.
.	.	4ee	1ee
.	.	4ff	.
[1g	.	2gg	.
.	.	4ff	4dd
.	.	4ee	4cc
=107	=107	=107	=107
0g]	1r	2dd	2b
.	.	2cc	1cc
.	2r	1dd	.
.	[2g	.	2b
=108	=108	=108	=108
1c	2g]	2ee	2cc
.	2e	1cc	1ee
2r	1f	.	.
[2a	.	2a	2dd
=109	=109	=109	=109
2a]	1e	1b	1ee
2g#	.	.	.
1a	2r	2a	[1ee
.	2a	2cc	.
=110	=110	=110	=110
1e	2a	2cc	1ee]
.	2g	2b	.
1r	4f	4a	1r
.	4g	4b	.
.	4a	4cc	.
.	4b	4dd	.
=111	=111	=111	=111
2r	1cc	1ee	2r
2c	.	.	2ee
2c	1g	1gg	2ee
2B	.	.	2dd
=112	=112	=112	=112
4A	1a	2r	4cc
4B	.	.	4dd
4c	.	2ee	4ee
4d	.	.	4ff
4e	[1g	2ee	2.gg
4f	.	.	.
2g	.	2dd	.
.	.	.	4ff
=113	=113	=113	=113
0c	2g]	4cc	4ee
.	.	4dd	4dd
.	2g	4ee	4cc
.	.	4ff	4b
.	1g	1ee	1cc
=114	=114	=114	=114
0G	0g	0dd	0b
*-	*-	*-	*-
!!!CDT: 1525/^1526/-1594/2/2
!!!OCY: Italia
!!!AGN: Mass (Parody)
!!!AST: renaissance, vocal
!!!ASW: Motet (Palestrina)
!!!PWK: Masses, Book 9
!!!RNB: Cadence finals: C
!!!YOR: Le Opere Complete, v. 25, p. 209
!!!YOO: Rome, Italy: Fratelli Scalera
!!!END: 1992//
!!!EED: John Miller
!!!YEC: Copyright 2000, John Miller
!!!YEN: United States of America
!!!YEM: Rights to all derivative electronic formats reserved.
!!!YEM: Refer to licensing agreement for further details.
!!!YEM: This file must be accompanied by the licensing agreement.
!!!YEM: A copy of the licensing agreement may be found at http://www.music-cog.ohio-state.edu/HumdrumDatabases/Palestrina/license.txt
!!!EMD: converted to Humdrum by Bret Aarden
